X:1
T:He Has Come!
T:Versa Hyman
T:He Has Come!
T:Public Domain
T:Public Domain
C:Versa Hyman
Z:Public Domain
%%score ( 1 2 ) ( 3 4 )
L:1/8
M:4/4
K:D
V:1 treble 
V:2 treble 
V:3 bass 
V:4 bass 
V:1
 D[DE] | [DF]2 [DF]2 [DF]2 [CE]2 | [CE]2 D4 [DF][EG] | [FA]2 [GB]2 [FA]2 [DF]2 | [CE]6 [DF][EG] | %5
w: 1.~He has|the Ho- ly Spir-|it, To my long-|wait- ing heart; He|has come, and|
w: 2.~Oft- en|He ho- ver o’er|me, Wait- ing me|let Him in; Sweet-|est words of|
w: 3~Then I|Him search the tem-|ple, And re- veal|me my need; Now|at last He|
w: 4.~Like the|O so re- fresh-|ing, Yet so gent-|He has come, And|He fills me|
w: 5.~O the|less con- de- scen-|sion! For the tri-|God in me Deigns|to live and|
w: 6.~He has|O hal- le- lu-|jah! Joy- ful bells|Heav- en ring, Fill|the earth with|
 [FA]2 [FA]2 [FA]2 [FA]2 | [GB]2 [Gd]4 [Gc][GB] | [FA]2 [DF]2 [CE]2 [CF]2 | D6 || %9
w: like a fount- ain,|Joy and glad- ness|up- ward start. *||
w: prom- ise whis- per:|“I will cleanse you|from all sin.” *||
w: makes me ho- ly—|He is dwell- ing|there in- deed. He|has|
w: with His pre- sence,|Makes my heart His|bless- èd home. *||
w: bless for- ev- er;|Won- drous glo- ry!|Can it be? *||
w: sweet- est mu- sic,|Ev- ery soul a-|wake and sing. *||
"^Refrain" [DF][EG] | [FA]6 [EG][FA] | [GB]6 [GB][GB] | [FA]3 [GB] [FA]2 [DF]2 | %13
w: ||||
w: ||||
w: He has|come, He has|come, my Ho-|ly Guest; He has|
w: ||||
w: ||||
w: ||||
 [CE]4 z2 [GA][GA] | [FA]2 [DF]2 [EG]2 [FA]2 | [GB]2 [Gd]4 [Gc][GB] | [FA]2 [DF]2 [CE]2 [CF]2 | %17
w: ||||
w: ||||
w: come with all|His full- ness, Come|to reign with- in|my breast. * *|
w: ||||
w: ||||
w: ||||
 D6 |] %18
w: |
w: |
w: |
w: |
w: |
w: |
V:2
 D x | x8 | x2 D4 x2 | x8 | x8 | x8 | x8 | x8 | D6 || x2 | x8 | x8 | x8 | x8 | x8 | x8 | x8 | D6 |] %18
w: come,||ing,||||||||||||||||
w: would||to||||||||||||||||
w: bade||to||||||come,||||||||||
w: dew,||ly||||||||||||||||
w: match-||une||||||||||||||||
w: come,||of||||||||||||||||
V:3
 [D,F,][D,G,] | [D,A,]2 [D,A,]2 [A,,A,]2 [A,,G,]2 | [A,,G,]2 [D,F,]4 [D,A,][D,A,] | %3
w: ~ ~|~ ~ ~ ~|~ ~ ~ ~|
 [D,D]2 [D,D]2 [D,D]2 [D,A,]2 | [A,,A,]6 [D,A,][D,D] | [D,D]2 [D,D]2 [D,D]2 [D,D]2 | %6
w: ~ ~ ~ ~|~ ~ ~|~ ~ ~ ~|
 [G,D]2 [G,B,]4 [G,D][G,D] | [A,D]2 A,2 [A,,G,]2 [A,,A,]2 | [D,F,]6 || z2 | %10
w: ~ ~ ~ ~|~ ~ ~ ~|Oh||
 z2 [A,,A,]2 [D,A,]2 z2 | z2 [D,D]2 [G,D]2 [G,D][G,D] | [D,D]3 [D,D] [D,D]2 [D,A,]2 | %13
w: yes, oh|yes, ~ ~ ~|~ ~ ~ ~|
 A,,2 G,2 F,2 [E,C][E,C] | [D,D]2 [F,A,]2 [E,A,]2 [D,D]2 | [G,D]2 [G,B,]4 [G,D][G,D] | %16
w: ~ Oh yes * *|||
 [A,D]2 A,2 [A,,G,]2 [A,,A,]2 | [D,F,]6 |] %18
w: ||
V:4
 x2 | x8 | x8 | x8 | x8 | x8 | x8 | x2 A,2 x4 | x6 || x2 | x8 | x8 | x8 | A,4 x4 | x8 | x8 | %16
w: |||||||~|||||||||
 x2 A,2 x4 | x6 |] %18
w: ||

